images/portfolio__logo_image-5.svg

<svg width="243" height="50" viewBox="0 0 243 50" fill="none" xmlns="http://www.w3.org/2000/svg">
<path d="M152.086 3.39638C151.929 5.43412 151.733 7.43267 151.615 7.78535C151.459 8.33397 151.655 8.49072 152.438 8.49072H153.457L153.183 5.82599C152.556 -0.326403 152.438 -0.639901 152.086 3.39638Z" fill="white"/>
<path d="M146.325 2.45562C146.521 3.08261 146.913 4.76767 147.148 6.21759C147.54 8.37289 147.775 8.88232 148.363 8.88232C148.755 8.88232 149.147 8.76476 149.225 8.56883C149.343 8.41208 148.755 6.84459 147.971 5.08116C146.482 1.75025 145.698 0.45707 146.325 2.45562Z" fill="white"/>
<path d="M158.16 2.29901C157.964 2.80845 157.297 4.41512 156.631 5.82586C155.965 7.27579 155.534 8.52978 155.691 8.64734C155.887 8.88247 157.337 9.00003 157.337 8.7649C157.337 8.72572 157.689 7.07985 158.081 5.15968C158.826 1.63283 158.865 0.496399 158.16 2.29901Z" fill="white"/>
<path d="M151.89 10.0581C151.145 10.4892 151.537 11.8215 152.438 11.8215C152.948 11.8215 153.261 11.508 153.34 10.9986C153.457 10.0973 152.673 9.54867 151.89 10.0581Z" fill="white"/>
<path d="M148.324 10.685C147.893 11.1553 147.932 11.3904 148.441 11.939C149.068 12.5268 149.147 12.5268 149.774 11.939C150.283 11.3904 150.322 11.1553 149.891 10.685C149.617 10.3324 149.264 10.058 149.107 10.058C148.951 10.058 148.598 10.3324 148.324 10.685Z" fill="white"/>
<path d="M155.142 10.6459C154.79 11.5472 155.299 12.4877 156.044 12.3309C156.906 12.1742 157.219 10.8418 156.475 10.4107C155.73 9.9013 155.377 9.97968 155.142 10.6459Z" fill="white"/>
<path d="M146.678 15.1132C139.193 17.5036 134.608 24.0479 134.608 32.238C134.608 40.6241 139.859 47.2467 148.206 49.402C151.576 50.3033 154.437 50.1858 158.042 49.0493C164.939 46.8548 169.093 41.9956 170.269 34.5892C171.327 27.849 167.8 20.1683 162.118 16.8374C157.885 14.3686 151.341 13.6241 146.678 15.1132ZM157.65 21.0696C160.393 22.4412 161.726 23.8519 163.176 26.9085C164.626 30.0043 164.586 34.3933 163.097 37.5675C161.02 41.8389 157.141 44.3077 152.438 44.3077C145.855 44.2685 140.839 39.0174 140.8 32.1596C140.8 28.8287 141.779 26.1248 143.856 23.8128C146.364 21.0305 148.911 19.8548 152.438 19.8548C154.79 19.8548 155.652 20.0508 157.65 21.0696Z" fill="white"/>
<path d="M0 32.1989V49.6372H3.25254H6.46589V43.0538V36.5095L10.1103 36.4703C13.2061 36.4703 14.0682 36.3136 16.0668 35.3731C20.4165 33.4137 22.5327 30.5138 22.8462 26.1249C23.1988 21.1481 20.2598 17.1118 15.1655 15.5443C13.0885 14.9173 11.5602 14.7606 6.30914 14.7606H0V32.1989ZM13.6372 20.7954C15.5181 21.5792 16.3411 22.7548 16.5762 24.8709C16.8897 28.241 15.0087 30.4747 11.2859 31.0233C10.3062 31.1408 8.85631 31.1408 7.99419 31.0233L6.46589 30.749V25.4979V20.2468H9.40494C11.0508 20.2468 12.9318 20.4819 13.6372 20.7954Z" fill="white"/>
<path d="M29.7823 29.73C26.3338 37.9985 23.0029 45.8359 22.2975 47.2075L21.0827 49.6763L24.3745 49.5587L27.7054 49.4411L29.3121 45.2089L30.9579 41.0159L38.7954 41.0943L46.6328 41.2118L48.3962 45.4049L50.1597 49.6371H53.373C55.1756 49.6371 56.6256 49.5587 56.6256 49.4803C56.6256 49.3628 55.9594 47.9128 55.1364 46.2278C54.2743 44.5427 50.7867 36.7837 47.3774 28.9854L41.1466 14.7604H38.5994H36.0131L29.7823 29.73ZM41.3425 29.0638C42.6749 32.0812 43.8505 34.7851 43.9681 35.0202C44.1248 35.4121 42.9492 35.5297 38.8345 35.5297C35.8955 35.5297 33.5051 35.4121 33.5051 35.2162C33.5051 34.3541 38.3643 22.9898 38.5994 23.2641C38.7954 23.4208 40.0102 26.0464 41.3425 29.0638Z" fill="white"/>
<path d="M60.1524 14.9173C60.1524 14.9957 60.4267 15.7403 60.7794 16.5632C61.328 17.8564 61.3672 20.09 61.2496 33.8448L61.1321 49.6372H63.9928H66.8534L66.7359 37.2932C66.6575 30.5138 66.6967 24.9493 66.8142 24.9493C66.9318 24.9493 71.3208 30.5138 76.5719 37.2932L86.1335 49.6372H88.7983H91.5022L91.5806 32.1989L91.6981 14.7606H88.7591H85.82L85.9376 26.7519C86.016 34.3934 85.8984 38.704 85.6633 38.5864C85.4674 38.5472 81.1176 33.1394 76.0232 26.5951L66.7359 14.7606H63.4441C61.6415 14.7606 60.1524 14.8389 60.1524 14.9173Z" fill="white"/>
<path d="M99.5356 32.1989V49.6372H107.02C113.447 49.6372 114.897 49.5196 117.091 48.8535C122.617 47.1292 126.81 43.0538 128.377 37.7635C129.044 35.6082 129.161 34.3542 129.044 31.1016C128.926 27.614 128.73 26.7519 127.672 24.479C126.222 21.3832 123.401 18.405 120.618 16.9942C117.052 15.1524 114.505 14.7606 106.746 14.7606H99.5356V32.1989ZM115.093 20.9522C118.306 22.1278 120.266 23.8128 121.598 26.5951C123.205 29.8477 123.479 32.0421 122.695 35.0987C121.637 39.2918 119.051 42.1524 115.054 43.5632C112.977 44.2686 106.785 44.3861 106.08 43.6807C105.727 43.3281 105.61 40.1539 105.61 31.7286V20.2468H109.45C112.036 20.286 113.839 20.4819 115.093 20.9522Z" fill="white"/>
<path d="M176.93 32.1597V49.6372H180.065H183.2V42.7403V35.8041L184.807 36.0784C185.708 36.2352 186.884 36.5879 187.472 36.8622C188.53 37.4108 192.449 43.3673 194.447 47.4427L195.505 49.6372H199.385C201.501 49.6372 203.186 49.5196 203.107 49.3237C203.029 49.167 201.814 47.286 200.404 45.1307C198.993 42.9754 197.112 40.0363 196.21 38.6256C195.309 37.2149 194.134 35.8041 193.585 35.5298C192.292 34.8244 192.331 34.5893 193.938 34.0407C196.72 33.0218 199.228 28.9464 199.267 25.4979C199.267 21.3832 197.347 18.1307 193.742 16.1321C191.626 14.9565 191.586 14.9565 184.298 14.8389L176.93 14.6822V32.1597ZM190.097 20.8738C192.566 22.0494 193.702 25.3019 192.488 27.6924C191.43 29.8085 187.354 31.2976 184.376 30.6314L183.2 30.3571V25.3019V20.2468H185.983C187.707 20.2468 189.274 20.4819 190.097 20.8738Z" fill="white"/>
<path d="M221.761 15.6226C221.173 17.5819 208.946 46.4237 208.084 47.9912L207.144 49.6763L210.475 49.5587L213.845 49.4411L215.451 45.2089L217.097 41.0159H224.856H232.615L233.909 43.8374C234.614 45.4049 235.437 47.3642 235.672 48.148L236.181 49.6371H239.591H243L241.393 46.4237C240.531 44.6211 236.965 36.7837 233.556 28.9854L227.286 14.7604H224.66C222.309 14.7604 222.035 14.8388 221.761 15.6226ZM227.403 28.7895C228.775 31.9636 229.99 34.7851 230.107 35.0202C230.264 35.4121 229.089 35.5297 224.974 35.5297C222.035 35.5297 219.644 35.4121 219.644 35.2554C219.644 34.7459 224.504 22.9898 224.739 22.9898C224.856 23.029 226.032 25.6153 227.403 28.7895Z" fill="white"/>
</svg>

<svg width="243" height="50" fill="none" xmlns="http://www.w3.org/2000/svg"><path d="M152.086 3.396c-.157 2.038-.353 4.037-.471 4.39-.156.548.04.705.823.705h1.019l-.274-2.665c-.627-6.152-.745-6.466-1.097-2.43zm-5.761-.94c.196.627.588 2.312.823 3.762.392 2.155.627 2.664 1.215 2.664.392 0 .784-.117.862-.313.118-.157-.47-1.724-1.254-3.488-1.489-3.33-2.273-4.624-1.646-2.625zm11.835-.157c-.196.51-.863 2.116-1.529 3.527-.666 1.45-1.097 2.704-.94 2.821.196.235 1.646.353 1.646.118 0-.04.352-1.685.744-3.605.745-3.527.784-4.664.079-2.861zm-6.27 7.759c-.745.431-.353 1.764.548 1.764.51 0 .823-.314.902-.823.117-.902-.667-1.45-1.45-.94zm-3.566.627c-.431.47-.392.705.117 1.254.627.588.706.588 1.333 0 .509-.549.548-.784.117-1.254-.274-.353-.627-.627-.784-.627-.156 0-.509.274-.783.627zm6.818-.039c-.352.901.157 1.842.902 1.685.862-.157 1.175-1.49.431-1.92-.745-.51-1.098-.431-1.333.235zm-8.464 4.467c-7.485 2.39-12.07 8.935-12.07 17.125 0 8.386 5.251 15.009 13.598 17.164 3.37.901 6.231.784 9.836-.353 6.897-2.194 11.051-7.053 12.227-14.46 1.058-6.74-2.469-14.42-8.151-17.752-4.233-2.468-10.777-3.213-15.44-1.724zm10.972 5.957c2.743 1.371 4.076 2.782 5.526 5.838 1.45 3.096 1.41 7.485-.079 10.66-2.077 4.27-5.956 6.74-10.659 6.74-6.583-.04-11.599-5.29-11.638-12.148 0-3.331.979-6.035 3.056-8.347 2.508-2.782 5.055-3.958 8.582-3.958 2.352 0 3.214.196 5.212 1.215zM0 32.199v17.438h6.466V36.51l3.644-.04c3.096 0 3.958-.156 5.957-1.097 4.35-1.96 6.466-4.86 6.78-9.248.352-4.977-2.587-9.013-7.682-10.58-2.076-.628-3.605-.784-8.856-.784H0v17.438zm13.637-11.404c1.881.784 2.704 1.96 2.94 4.076.313 3.37-1.568 5.604-5.291 6.152-.98.118-2.43.118-3.292 0l-1.528-.274V20.247h2.939c1.646 0 3.527.235 4.232.548zm16.145 8.935c-3.448 8.268-6.78 16.106-7.485 17.478l-1.214 2.468 3.292-.117 3.33-.118 1.607-4.232 1.646-4.193 7.837.078 7.838.118 1.763 4.193 1.764 4.232h3.213c1.803 0 3.253-.078 3.253-.157 0-.117-.667-1.567-1.49-3.252-.862-1.685-4.35-9.444-7.759-17.243l-6.23-14.225h-5.134l-6.23 14.97zm11.56-.666c1.333 3.017 2.508 5.721 2.626 5.956.157.392-1.019.51-5.134.51-2.939 0-5.329-.118-5.329-.314 0-.862 4.86-12.226 5.094-11.952.196.157 1.411 2.782 2.744 5.8zm18.81-14.147c0 .079.275.823.627 1.646.549 1.293.588 3.527.47 17.282l-.117 15.792h5.721l-.117-12.344c-.079-6.78-.04-12.344.078-12.344s4.507 5.565 9.758 12.344l9.561 12.344h5.369l.079-17.438.117-17.438H85.82l.118 11.99c.078 7.642-.04 11.953-.275 11.835-.196-.039-4.545-5.447-9.64-11.99L66.736 14.76h-3.292c-1.803 0-3.292.078-3.292.156zm39.384 17.282v17.438h7.484c6.427 0 7.877-.117 10.071-.784 5.526-1.724 9.719-5.8 11.286-11.09.667-2.155.784-3.409.667-6.661-.118-3.488-.314-4.35-1.372-6.623-1.45-3.096-4.271-6.074-7.054-7.485-3.566-1.842-6.113-2.233-13.872-2.233h-7.21v17.438zm15.557-11.247c3.213 1.176 5.173 2.86 6.505 5.643 1.607 3.253 1.881 5.447 1.097 8.504-1.058 4.193-3.644 7.053-7.641 8.464-2.077.706-8.269.823-8.974.118-.353-.353-.47-3.527-.47-11.952V20.247h3.84c2.586.039 4.389.235 5.643.705zM176.93 32.16v17.477h6.27V35.804l1.607.274c.901.157 2.077.51 2.665.784 1.058.549 4.977 6.505 6.975 10.58l1.058 2.195h3.88c2.116 0 3.801-.117 3.722-.313-.078-.157-1.293-2.038-2.703-4.193a814.777 814.777 0 01-4.194-6.505c-.901-1.411-2.076-2.822-2.625-3.096-1.293-.706-1.254-.94.353-1.49 2.782-1.018 5.29-5.094 5.329-8.542 0-4.115-1.92-7.367-5.525-9.366-2.116-1.176-2.156-1.176-9.444-1.293l-7.368-.157V32.16zm13.167-11.286c2.469 1.175 3.605 4.428 2.391 6.818-1.058 2.116-5.134 3.606-8.112 2.94l-1.176-.275v-10.11h2.783c1.724 0 3.291.235 4.114.627zm31.664-5.251c-.588 1.959-12.815 30.8-13.677 32.368l-.94 1.685 3.331-.117 3.37-.118 1.606-4.232 1.646-4.193h15.518l1.294 2.821c.705 1.568 1.528 3.527 1.763 4.311l.509 1.49H243l-1.607-3.214c-.862-1.803-4.428-9.64-7.837-17.439l-6.27-14.225h-2.626c-2.351 0-2.625.079-2.899.863zm5.642 13.167c1.372 3.174 2.587 5.995 2.704 6.23.157.392-1.018.51-5.133.51-2.939 0-5.33-.118-5.33-.275 0-.51 4.86-12.265 5.095-12.265.117.039 1.293 2.625 2.664 5.8z" fill="#fff"/></svg>
